X:1
T:Jesus, Tender Shepherd, Hear Me
T:John Stainer (1840-1901)
T:Jesus, Tender Shepherd, Hear Me
T:Public Domain
C:John Stainer (1840-1901)
Z:Public Domain
%%score ( 1 2 ) ( 3 4 )
L:1/8
M:none
K:F
V:1 treble 
V:2 treble 
V:3 bass 
V:4 bass 
V:1
 [Ac]2 [Ac]2 [Ac]2 [GB]2 | [FA]2 [FA]2 [FA]2 [EG]2 | F2 [EG]2 [FA]2 [FA]2 | (cB) [FA]2 [EG]4 | %4
w: 1.~Je- sus, ten- der|Shep- herd, hear me;|Bless Thy lit- tle|to- * night; Through|
w: 2.~All this day Thy|hand has led me,|And I thank Thee|Thy * care; Thou|
w: 3.~Let my sins be|all for- giv- en;|Bless the friends I|so * well; Take|
 c2 c2 [Gc]2 [EB]2 | A2 A2 [FA]2 [EG]2 | F2 G2 A2 A2 | [EB]2 [CE]2 [CF]4 |] %8
w: dark- ness be Thou|me; Watch my sleep|morn- ing light. *||
w: clothed me, warmed and|me, List- en to|ev- ening prayer. *||
w: when I die, to|en, Hap- py there|Thee to dwell. *||
V:2
 x8 | x8 | F2 x6 | G2 x6 | F4 x4 | F4 x4 | F4 F4 | x8 |] %8
w: ||lamb|the|near|till|||
w: ||for|hast|fed|my|||
w: ||love|me,|Heav-|with|||
V:3
 [F,C-]4 [E,C]4 | F,2 A,2 =C2 B,2 | A,2 G,2 F,2 F,2 | E,2 F,2 C2 B,2 | [A,C]2 [F,A,]2 E,2 C,2 | %5
 F,2 D,2 ^C,2 A,,2 | A,2 =B,2 C2 F,2 | G,2 B,2 [F,A,]4 |] %8
V:4
 x8 | C4- =C4 | C8- | C8 | x4 G,4 | A,4 A,4 | D,4 C,4 | C,4 x4 |] %8

